Themes/_res/svgs/guildsettings_boostheader_accent.svg

<svg xmlns="http://www.w3.org/2000/svg" width="95" height="60"><path opacity="0.15" fill="black" d="m 3.5332031,10.197266 c -1.9184329,0.0057 -3.47190286,1.560079 -3.47656248,3.478515 v 7.242188 H 0 v 7.417969 c 0.05883224,2.788213 0.8156172,5.517205 2.2011719,7.9375 l 3.8242187,6.490234 c 1.739,3.013 2.6660156,6.373609 2.6660156,9.849609 v 1 l 0.00391,-1 21.5507815,-2.78125 v -2.492187 -0.05664 h -0.002 c -0.02247,-6.03292 -3.61237,-11.4998 -9.107422,-13.958984 -0.13161,-0.0589 -0.258799,-0.124283 -0.392578,-0.179688 L 18.824219,32.349609 18.470703,32.203125 18.046875,31.779297 13.955078,27.6875 13.238281,26.970703 11.472656,25.205078 c -0.143178,-0.137306 -0.296554,-0.258261 -0.455078,-0.367187 -0.05764,-0.03957 -0.118403,-0.0716 -0.177734,-0.107422 -0.106809,-0.06452 -0.21466,-0.125361 -0.326172,-0.177735 -0.06532,-0.03067 -0.132564,-0.05552 -0.199219,-0.08203 -0.110022,-0.04374 -0.221073,-0.08479 -0.3339842,-0.117187 -0.071103,-0.02039 -0.1428959,-0.03684 -0.2148438,-0.05273 -0.1075238,-0.02375 -0.2154523,-0.04292 -0.3242188,-0.05664 -0.07923,-0.01 -0.1587469,-0.01877 -0.2382812,-0.02344 -0.1133043,-0.0066 -0.2266585,-0.0061 -0.3398438,-0.002 -0.067741,0.0025 -0.1356728,0.0034 -0.203125,0.0098 -0.1332716,0.01259 -0.2654222,0.03678 -0.3964843,0.06445 -0.050068,0.01058 -0.1007889,0.01651 -0.1503907,0.0293 -0.1805561,0.0465 -0.3573718,0.104056 -0.5292968,0.179687 -0.1808547,0.07956 -0.3564951,0.17534 -0.5234375,0.287109 v -0.002 c -0.1793251,0.12187 -0.3528127,0.25891 -0.5117188,0.417969 -1.3619056,1.359517 -1.3619056,3.566264 0,4.925781 l 0.4628907,0.464844 4.8984372,4.898438 0.490235,0.490234 c 0.0721,0.07925 0.113034,0.181944 0.115234,0.289063 v 5.041015 c 0,0.233 -0.173297,0.462891 -0.404297,0.462891 -0.232,0 -0.464844,-0.173297 -0.464844,-0.404297 V 36.505859 L 5.96875,30.826172 c -1.7960002,-1.797 -1.7965937,-4.577813 -0.058594,-6.257813 0.3400393,-0.35198 0.7336282,-0.611947 1.1464844,-0.820312 L 7.0097656,13.675781 C 7.005106,11.757345 5.451636,10.203003 3.5332031,10.197266 Z m 5.1582031,43.416015 c -1.7079427,0.260183 -2.9520431,1.859701 -2.7226562,3.578125 0.232,1.739 1.8537969,3.015203 3.5917969,2.783203 L 31.115234,57.191406 c 1.738,-0.173 3.01325,-1.794797 2.78125,-3.591797 -0.203,-1.519875 -1.469308,-2.686459 -2.947265,-2.798828 -0.211137,-0.01605 -0.427282,-0.01142 -0.644531,0.01758 l -0.05859,0.0078 z M 91.494141,10.197266 c -1.926957,-0.0149 -3.492548,1.551567 -3.476563,3.478515 v 10.083985 c 0.384833,0.203071 0.752939,0.448757 1.072266,0.779296 1.738,1.68 1.737402,4.460813 -0.05859,6.257813 l -5.677734,5.679687 v 4.867188 c 0,0.231 -0.232844,0.404297 -0.464844,0.404297 -0.231,0 -0.404297,-0.229891 -0.404297,-0.462891 v -5.041015 c 0.0022,-0.107118 0.04313,-0.209813 0.115234,-0.289063 l 5.851563,-5.853516 c 1.361906,-1.359515 1.361906,-3.566264 0,-4.925781 -1.359295,-1.360602 -3.564533,-1.360602 -4.923828,0 l -1.738282,1.738281 -0.716796,0.71875 -4.105469,4.105469 -0.505859,0.50586 -0.253907,0.105468 -1.921875,0.794922 c -0.158832,0.06579 -0.311021,0.142181 -0.466797,0.212891 -5.469849,2.482866 -9.037109,7.954102 -9.037109,13.982422 v 0.002 2.460937 l 21.554688,2.765625 0.002,1.029297 v -0.984375 c 0,-3.476 0.927015,-6.836609 2.666015,-9.849609 l 3.824219,-6.490234 c 1.391,-2.433 2.086531,-5.156502 2.144531,-7.9375 v -1.91211 -5.505859 -7.242188 c -0.0047,-1.919195 -1.55932,-3.473851 -3.478515,-3.478515 z m -5.15625,43.40039 -21.556641,-2.78125 c -0.2245,-0.029 -0.44551,-0.03363 -0.662109,-0.01758 -1.516198,0.112383 -2.778313,1.278078 -2.929688,2.798828 -0.232,1.738 1.04325,3.360797 2.78125,3.591797 l 21.554688,2.783203 c 1.739,0.232 3.361795,-1.04225 3.591797,-2.78125 0.233,-1.738 -1.041297,-3.36075 -2.779297,-3.59375 z M 72.244141,22.107422 c -0.02192,0.0143 -0.04317,0.02847 -0.06445,0.04297 0.0213,-0.01471 0.04276,-0.02868 0.06445,-0.04297 z"/><path opacity="0.5" fill="black" d="m 47.515625,0 v 10.140625 l 7.183594,7.185547 7.185547,-2.957031 z m -8.722656,3.5820312 c -0.08419,0.00362 -0.172766,0.024859 -0.259766,0.068359 l -2.316406,1.1015625 c -0.175885,0.1162546 -0.404193,0.1162546 -0.580078,0 l -2.31836,-1.1015625 c -0.168405,-0.057494 -0.351126,-0.057494 -0.519531,0 -0.29,0.174 -0.465015,0.5211407 -0.291016,0.8691406 l 1.101563,2.3183594 c 0.116255,0.1758853 0.116255,0.4041929 0,0.5800782 L 32.507812,9.734375 c -0.0581,0.1889944 -0.0581,0.391084 0,0.580078 0.174,0.29 0.579141,0.463063 0.869141,0.289063 l 2.318359,-1.0996098 c 0.173001,-0.1159999 0.405485,-0.1165937 0.521485,-0.058594 l 2.316406,1.1015625 c 0.189004,0.05804 0.391074,0.05804 0.580078,0 0.29,-0.175 0.463063,-0.5791406 0.289063,-0.8691406 L 38.302734,7.359375 c -0.116255,-0.1758852 -0.116255,-0.4041929 0,-0.5800781 l 1.09961,-2.3183594 c 0.05757,-0.1683926 0.05757,-0.3511387 0,-0.5195313 -0.1305,-0.2174999 -0.356813,-0.3702498 -0.609375,-0.359375 z"/><path opacity="1" fill="black" d="M40.33 31.58l-7.185 3.013 14.37 14.313v-10.14L40.33 31.58z"/><path opacity="0.25" fill="black" d="m 47.515625,10.140625 -7.185547,7.185547 v 10.429687 l 12.400391,-12.40039 z m 7.183594,7.242187 -14.310547,14.25586 4.691406,4.691406 -1.96875,-2.027344 11.587891,-11.585937 z m -9.619141,18.947266 2.435547,2.435547 7.183594,-7.185547 v -4.925781 z"/><path opacity="0.45" fill="black" d="m 75.560547,14.369141 5.511719,13.263671 0.716796,-0.71875 -5.011718,-12.080078 c -0.348,-0.232 -0.752797,-0.348843 -1.216797,-0.464843 z m -56.148438,0.117187 c -0.406,0 -0.811156,0.173297 -1.160156,0.404297 l 0.002,0.002 -5.015625,12.078125 0.716797,0.716797 z m 2.78125,7.300781 -4.146484,9.992188 0.423828,0.423828 0.353516,0.146484 4.179687,-10.097656 V 22.25 c -0.249499,-0.187985 -0.52186,-0.343526 -0.810547,-0.462891 z m 50.642579,0 c -0.289001,0.116 -0.579547,0.290844 -0.810547,0.464844 l 4.18164,10.097656 0.253907,-0.105468 0.505859,-0.50586 z"/><path opacity="0.75" fill="black" d="m 47.515625,0 -8.617187,8.6152344 0.503906,1.0625 c 0.174,0.29 9.37e-4,0.6941406 -0.289063,0.8691406 -0.189004,0.05804 -0.391074,0.05804 -0.580078,0 l -1.060547,-0.503906 -4.328125,4.326172 V 34.59375 l 7.185547,-3.013672 V 27.755859 17.326172 l 7.185547,-7.185547 z m 14.369141,14.369141 -7.185547,2.957031 v 0.05664 5.333985 3.9375 4.925781 l -7.183594,7.185547 V 48.90625 L 61.884766,34.535156 Z"/><path opacity="0.3" fill="black" d="M 79.359375,8.4765625 C 78.905812,8.4739531 78.443141,8.5615 77.994141,8.75 v -0.00195 c -1.738,0.754 -2.607516,2.7821251 -1.853516,4.5781251 l 0.619141,1.5 c 0.0054,0.0035 0.01225,0.0043 0.01758,0.0078 l 5.011718,12.080078 1.738282,-1.738281 c 1.359295,-1.360602 3.564533,-1.360602 4.923828,0 1.361906,1.359517 1.361906,3.566266 0,4.925781 l -5.851563,5.853516 c -0.0721,0.07925 -0.113034,0.181945 -0.115234,0.289063 v 5.041015 c 0,0.233 0.173297,0.462891 0.404297,0.462891 0.232,0 0.464844,-0.173297 0.464844,-0.404297 v -4.867188 l 5.677734,-5.679687 c 1.795996,-1.797 1.796594,-4.577813 0.05859,-6.257813 -0.33253,-0.344207 -0.716928,-0.59898 -1.119141,-0.80664 L 82.513672,10.603516 c -0.522,-1.3042532 -1.79361,-2.1191254 -3.154297,-2.1269535 z m -63.658203,0.050781 c -1.339313,-0.00539 -2.620797,0.787768 -3.185547,2.1347652 L 7.0839844,23.732422 c -0.4230742,0.210631 -0.8261155,0.476014 -1.1738282,0.835937 -1.7379999,1.68 -1.7374064,4.460813 0.058594,6.257813 l 5.677734,5.679687 v 4.867188 c 0,0.231 0.232844,0.404297 0.464844,0.404297 0.231,0 0.404297,-0.229891 0.404297,-0.462891 v -5.041015 c -0.0022,-0.107119 -0.04313,-0.209814 -0.115234,-0.289063 L 6.5488281,30.130859 c -1.3619056,-1.359517 -1.3619056,-3.566264 0,-4.925781 0.1589061,-0.159059 0.3323937,-0.296099 0.5117188,-0.417969 v 0.002 c 0.1669424,-0.111769 0.3425828,-0.207549 0.5234375,-0.287109 1.2659825,-0.556917 2.8174136,-0.324204 3.8886716,0.703125 l 1.765625,1.765625 5.015625,-12.078125 -0.002,-0.002 c 0.11827,-0.07828 0.249891,-0.134783 0.378906,-0.195313 -0.124046,0.05448 -0.253658,0.09529 -0.371093,0.164063 l 0.630859,-1.53125 c 0.753,-1.739 -0.05947,-3.7665312 -1.855469,-4.5195312 -0.43475,-0.1882503 -0.887547,-0.2794535 -1.333984,-0.28125 z m 4.044922,5.8652342 c -0.293152,0.02189 -0.578773,0.09018 -0.855469,0.185547 0.170918,-0.05555 0.345766,-0.0918 0.521484,-0.0918 l -5.457031,13.201172 4.091797,4.091797 4.115234,-9.917969 c -0.0099,-0.0042 -0.01743,-0.01147 -0.02734,-0.01563 -0.01275,-0.0055 -0.02628,-0.0064 -0.03906,-0.01172 l 1.083985,-2.654296 c 0.753,-1.739 -0.05947,-3.766532 -1.855469,-4.519532 -0.515265,-0.223113 -1.054332,-0.306692 -1.578125,-0.267578 z m 55.539062,0.01172 c -0.537828,-0.04823 -1.097183,0.02935 -1.636718,0.255859 -1.738001,0.753 -2.607516,2.780172 -1.853516,4.576172 l 1.054687,2.546875 c -0.0039,0.0016 -0.0078,0.0023 -0.01172,0.0039 h -0.002 l 4.130859,9.951172 4.105469,-4.105469 -5.46875,-13.162109 c -0.106922,-0.01995 -0.20933,-0.05663 -0.31836,-0.06641 z m -3.041015,7.703125 c -0.0217,0.01429 -0.04315,0.02826 -0.06445,0.04297 0.02129,-0.0145 0.04253,-0.02867 0.06445,-0.04297 z m -0.210938,0.164062 c -1.225809,0.946909 -1.73751,2.595569 -1.109375,4.09375 l 2.894531,6.992188 c 0.155776,-0.07071 0.307965,-0.147098 0.466797,-0.212891 l 1.921875,-0.794922 z m -49.070312,0.08203 -4.138672,9.996093 1.919922,0.794922 c 0.133779,0.05541 0.260968,0.120789 0.392578,0.179688 l 2.851562,-6.958985 c 0.622861,-1.437625 0.164163,-3.062855 -1.02539,-4.011718 z M 64.78125,49.802734 v 1.013672 l 21.556641,2.78125 -0.002,-1.029297 z m -34.535156,0.0293 -21.5507815,2.78125 -0.00391,1 21.5546878,-2.787109 z"/></svg>

<svg xmlns="http://www.w3.org/2000/svg" width="95" height="60"><path opacity="0.75" fill="black" d="M 47.515625 0 L 38.898438 8.6152344 L 39.402344 9.6777344 C 39.576344 9.9677344 39.403281 10.371875 39.113281 10.546875 A 0.988 0.988 0 0 1 38.533203 10.546875 L 37.472656 10.042969 L 33.144531 14.369141 L 33.144531 34.59375 L 40.330078 31.580078 L 40.330078 27.755859 L 40.330078 17.326172 L 47.515625 10.140625 L 47.515625 0 z M 3.5332031 10.197266 A 3.487 3.487 0 0 0 0.056640625 13.675781 L 0.056640625 20.917969 L 0 20.917969 L 0 28.335938 A 16.685 16.685 0 0 0 2.2011719 36.273438 L 6.0253906 42.763672 C 7.7643906 45.776672 8.6914062 49.137281 8.6914062 52.613281 L 8.6914062 53.613281 L 8.6953125 52.613281 L 30.246094 49.832031 L 30.246094 47.339844 L 30.246094 47.283203 L 30.244141 47.283203 C 30.221676 41.250283 26.631771 35.783403 21.136719 33.324219 C 21.005109 33.26532 20.87792 33.199936 20.744141 33.144531 L 18.824219 32.349609 L 18.470703 32.203125 L 18.046875 31.779297 L 13.955078 27.6875 L 13.238281 26.970703 L 11.472656 25.205078 C 11.329478 25.067772 11.176102 24.946817 11.017578 24.837891 C 10.959942 24.798318 10.899175 24.766293 10.839844 24.730469 C 10.733035 24.665953 10.625184 24.605108 10.513672 24.552734 C 10.44835 24.522061 10.381108 24.497211 10.314453 24.470703 C 10.204431 24.426966 10.09338 24.385914 9.9804688 24.353516 C 9.9093657 24.333122 9.8375729 24.316679 9.765625 24.300781 C 9.6581012 24.277027 9.5501727 24.257862 9.4414062 24.244141 C 9.3621767 24.234154 9.2826593 24.225366 9.203125 24.220703 C 9.0898207 24.214081 8.9764665 24.214578 8.8632812 24.21875 C 8.7955404 24.221246 8.7276084 24.222153 8.6601562 24.228516 C 8.5268846 24.241106 8.394734 24.265297 8.2636719 24.292969 C 8.2136043 24.303552 8.162883 24.309481 8.1132812 24.322266 C 7.9327251 24.368762 7.7559094 24.426322 7.5839844 24.501953 C 7.4031297 24.581513 7.2274893 24.677293 7.0605469 24.789062 L 7.0605469 24.787109 C 6.8812218 24.908979 6.7077342 25.046019 6.5488281 25.205078 C 5.1869225 26.564595 5.1869225 28.771342 6.5488281 30.130859 L 7.0117188 30.595703 L 11.910156 35.494141 L 12.400391 35.984375 C 12.472495 36.063624 12.513425 36.166319 12.515625 36.273438 L 12.515625 41.314453 C 12.515625 41.547453 12.342328 41.777344 12.111328 41.777344 C 11.879328 41.777344 11.646484 41.604047 11.646484 41.373047 L 11.646484 36.505859 L 5.96875 30.826172 C 4.1727498 29.029172 4.1721563 26.248359 5.9101562 24.568359 C 6.2501955 24.216379 6.6437844 23.956412 7.0566406 23.748047 L 7.0097656 13.675781 A 3.487 3.487 0 0 0 3.5332031 10.197266 z M 8.6914062 53.613281 C 6.9834635 53.873464 5.7393631 55.472982 5.96875 57.191406 C 6.20075 58.930406 7.8225469 60.206609 9.5605469 59.974609 L 31.115234 57.191406 C 32.853234 57.018406 34.128484 55.396609 33.896484 53.599609 C 33.693484 52.079734 32.427176 50.91315 30.949219 50.800781 C 30.738082 50.784729 30.521937 50.789359 30.304688 50.818359 L 30.246094 50.826172 L 8.6914062 53.613281 z M 91.494141 10.197266 A 3.45 3.45 0 0 0 88.017578 13.675781 L 88.017578 23.759766 C 88.402411 23.962837 88.770517 24.208523 89.089844 24.539062 C 90.827844 26.219062 90.827246 28.999875 89.03125 30.796875 L 83.353516 36.476562 L 83.353516 41.34375 C 83.353516 41.57475 83.120672 41.748047 82.888672 41.748047 C 82.657672 41.748047 82.484375 41.518156 82.484375 41.285156 L 82.484375 36.244141 C 82.486575 36.137023 82.527509 36.034328 82.599609 35.955078 L 88.451172 30.101562 C 89.813078 28.742047 89.813078 26.535298 88.451172 25.175781 C 87.091877 23.815179 84.886639 23.815179 83.527344 25.175781 L 81.789062 26.914062 L 81.072266 27.632812 L 76.966797 31.738281 L 76.460938 32.244141 L 76.207031 32.349609 L 74.285156 33.144531 C 74.126324 33.210324 73.974135 33.286712 73.818359 33.357422 C 68.34851 35.840288 64.78125 41.311524 64.78125 47.339844 L 64.78125 47.341797 L 64.78125 49.802734 L 86.335938 52.568359 L 86.337891 53.597656 L 86.337891 52.613281 C 86.337891 49.137281 87.264906 45.776672 89.003906 42.763672 L 92.828125 36.273438 C 94.219125 33.840438 94.914656 31.116936 94.972656 28.335938 L 94.972656 26.423828 L 94.972656 20.917969 L 94.972656 13.675781 A 3.487 3.487 0 0 0 91.494141 10.197266 z M 86.337891 53.597656 L 64.78125 50.816406 C 64.55675 50.787406 64.33574 50.782773 64.119141 50.798828 C 62.602943 50.911211 61.340828 52.076906 61.189453 53.597656 C 60.957453 55.335656 62.232703 56.958453 63.970703 57.189453 L 85.525391 59.972656 C 87.264391 60.204656 88.887186 58.930406 89.117188 57.191406 C 89.350188 55.453406 88.075891 53.830656 86.337891 53.597656 z M 61.884766 14.369141 L 54.699219 17.326172 L 54.699219 17.382812 L 54.699219 22.716797 L 54.699219 26.654297 L 54.699219 31.580078 L 47.515625 38.765625 L 47.515625 48.90625 L 61.884766 34.535156 L 61.884766 14.369141 z M 72.244141 22.107422 C 72.222218 22.121724 72.200974 22.135895 72.179688 22.150391 C 72.200992 22.135683 72.222444 22.121713 72.244141 22.107422 z"/><path opacity="0.5" fill="black" d="M 47.515625 0 L 47.515625 10.140625 L 54.699219 17.326172 L 61.884766 14.369141 L 47.515625 0 z M 38.792969 3.5820312 C 38.708781 3.5856562 38.620203 3.6068906 38.533203 3.6503906 L 36.216797 4.7519531 A 0.526 0.526 0 0 1 35.636719 4.7519531 L 33.318359 3.6503906 A 0.804 0.804 0 0 0 32.798828 3.6503906 C 32.508828 3.8243906 32.333813 4.1715313 32.507812 4.5195312 L 33.609375 6.8378906 A 0.526 0.526 0 0 1 33.609375 7.4179688 L 32.507812 9.734375 A 0.987 0.987 0 0 0 32.507812 10.314453 C 32.681812 10.604453 33.086953 10.777516 33.376953 10.603516 L 35.695312 9.5039062 C 35.868313 9.3879063 36.100797 9.3873125 36.216797 9.4453125 L 38.533203 10.546875 A 0.988 0.988 0 0 0 39.113281 10.546875 C 39.403281 10.371875 39.576344 9.9677344 39.402344 9.6777344 L 38.302734 7.359375 A 0.526 0.526 0 0 1 38.302734 6.7792969 L 39.402344 4.4609375 A 0.803 0.803 0 0 0 39.402344 3.9414062 C 39.271844 3.7239063 39.045531 3.5711564 38.792969 3.5820312 z M 75.560547 14.369141 L 81.072266 27.632812 L 81.789062 26.914062 L 76.777344 14.833984 C 76.429344 14.601984 76.024547 14.485141 75.560547 14.369141 z M 19.412109 14.486328 C 19.006109 14.486328 18.600953 14.659625 18.251953 14.890625 L 18.253906 14.892578 L 13.238281 26.970703 L 13.955078 27.6875 L 19.412109 14.486328 z M 22.193359 21.787109 L 18.046875 31.779297 L 18.470703 32.203125 L 18.824219 32.349609 L 23.003906 22.251953 L 23.003906 22.25 A 3.69 3.69 0 0 0 22.193359 21.787109 z M 72.835938 21.787109 C 72.546937 21.903109 72.256391 22.077953 72.025391 22.251953 L 76.207031 32.349609 L 76.460938 32.244141 L 76.966797 31.738281 L 72.835938 21.787109 z"/><path opacity="1" fill="black" d="M40.33 31.58l-7.185 3.013 14.37 14.313v-10.14L40.33 31.58z"/><path opacity="0.25" fill="black" d="M 79.359375 8.4765625 C 78.905812 8.4739531 78.443141 8.5615 77.994141 8.75 L 77.994141 8.7480469 C 76.256141 9.5020469 75.386625 11.530172 76.140625 13.326172 L 76.759766 14.826172 C 76.765118 14.829669 76.772018 14.830434 76.777344 14.833984 L 81.789062 26.914062 L 83.527344 25.175781 C 84.886639 23.815179 87.091877 23.815179 88.451172 25.175781 C 89.813078 26.535298 89.813078 28.742047 88.451172 30.101562 L 82.599609 35.955078 C 82.527509 36.034328 82.486575 36.137023 82.484375 36.244141 L 82.484375 41.285156 C 82.484375 41.518156 82.657672 41.748047 82.888672 41.748047 C 83.120672 41.748047 83.353516 41.57475 83.353516 41.34375 L 83.353516 36.476562 L 89.03125 30.796875 C 90.827246 28.999875 90.827844 26.219062 89.089844 24.539062 C 88.757314 24.194855 88.372916 23.940082 87.970703 23.732422 L 82.513672 10.603516 C 81.991672 9.2992628 80.720062 8.4843906 79.359375 8.4765625 z M 15.701172 8.5273438 C 14.361859 8.5219525 13.080375 9.3151118 12.515625 10.662109 L 7.0839844 23.732422 C 6.6609102 23.943053 6.2578689 24.208436 5.9101562 24.568359 C 4.1721563 26.248359 4.1727498 29.029172 5.96875 30.826172 L 11.646484 36.505859 L 11.646484 41.373047 C 11.646484 41.604047 11.879328 41.777344 12.111328 41.777344 C 12.342328 41.777344 12.515625 41.547453 12.515625 41.314453 L 12.515625 36.273438 C 12.513425 36.166319 12.472495 36.063624 12.400391 35.984375 L 6.5488281 30.130859 C 5.1869225 28.771342 5.1869225 26.564595 6.5488281 25.205078 C 6.7077342 25.046019 6.8812218 24.908979 7.0605469 24.787109 L 7.0605469 24.789062 C 7.2274893 24.677293 7.4031297 24.581513 7.5839844 24.501953 C 8.8499669 23.945036 10.401398 24.177749 11.472656 25.205078 L 13.238281 26.970703 L 18.253906 14.892578 L 18.251953 14.890625 C 18.370223 14.812343 18.501844 14.755842 18.630859 14.695312 C 18.506813 14.749792 18.377201 14.790604 18.259766 14.859375 L 18.890625 13.328125 C 19.643625 11.589125 18.831156 9.5615938 17.035156 8.8085938 C 16.600406 8.6203435 16.147609 8.5291403 15.701172 8.5273438 z M 47.515625 10.140625 L 40.330078 17.326172 L 40.330078 27.755859 L 52.730469 15.355469 L 47.515625 10.140625 z M 19.746094 14.392578 C 19.452942 14.414469 19.167321 14.482759 18.890625 14.578125 C 19.061543 14.522573 19.236391 14.486328 19.412109 14.486328 L 13.955078 27.6875 L 18.046875 31.779297 L 22.162109 21.861328 C 22.152258 21.857095 22.144677 21.849859 22.134766 21.845703 C 22.122017 21.84018 22.108483 21.839341 22.095703 21.833984 L 23.179688 19.179688 C 23.932688 17.440688 23.120219 15.413156 21.324219 14.660156 C 20.808954 14.437043 20.269887 14.353464 19.746094 14.392578 z M 75.285156 14.404297 C 74.747328 14.356071 74.187973 14.433647 73.648438 14.660156 C 71.910437 15.413156 71.040922 17.440328 71.794922 19.236328 L 72.849609 21.783203 C 72.845706 21.784824 72.841792 21.785474 72.837891 21.787109 L 72.835938 21.787109 L 76.966797 31.738281 L 81.072266 27.632812 L 75.603516 14.470703 C 75.496594 14.450754 75.394186 14.414073 75.285156 14.404297 z M 54.699219 17.382812 L 40.388672 31.638672 L 45.080078 36.330078 L 43.111328 34.302734 L 54.699219 22.716797 L 54.699219 17.382812 z M 45.080078 36.330078 L 47.515625 38.765625 L 54.699219 31.580078 L 54.699219 26.654297 L 45.080078 36.330078 z M 72.244141 22.107422 C 72.222444 22.121713 72.200992 22.135683 72.179688 22.150391 C 72.200975 22.135895 72.222218 22.121724 72.244141 22.107422 z M 72.033203 22.271484 C 70.807394 23.218393 70.295693 24.867053 70.923828 26.365234 L 73.818359 33.357422 C 73.974135 33.286712 74.126324 33.210324 74.285156 33.144531 L 76.207031 32.349609 L 72.033203 22.271484 z M 22.962891 22.353516 L 18.824219 32.349609 L 20.744141 33.144531 C 20.87792 33.199936 21.005109 33.26532 21.136719 33.324219 L 23.988281 26.365234 C 24.611142 24.927609 24.152444 23.302379 22.962891 22.353516 z M 64.78125 49.802734 L 64.78125 50.816406 L 86.337891 53.597656 L 86.335938 52.568359 L 64.78125 49.802734 z M 30.246094 49.832031 L 8.6953125 52.613281 L 8.6914062 53.613281 L 30.246094 50.826172 L 30.246094 49.832031 z"/></svg>
